!!!OTL: 71h. Des Bergmanns Lieb.
!!!ARE: Europa, Mitteleuropa, Deutschland, Boehmen
!!!SCT: E0071H
!!!TXL: @@DE
!!!YEM: Copyright 1995, estate of Helmut Schaffrath.
**kern	**text
*ICvox	*
*M2/4	*
*k[b-]	*
*F:	*
!LO:TX:a:t=Nicht zu geſchwind.	!
!LO:TX:a:t=Böhmiſch.	!
{8c	Dort
=1	=1
8f	o-
8g	-ben
8a	auf
8b-	dem
=2	=2
4cc	Ber-
8a}	-ge,
{8ff	da
=3	=3
8ee	ſteht
8dd	ein
16ccL	ſchö-
16b-J	.
16aL	-nes
16b-J	.
=4	=4
4a	Haus,
8r}	.
{8cc	da
=5	=5
8ff	ſchau-
8a	-en
8cc	all
8g	früh
=6	=6
8b-	mor-
8b-	.
8a}	-gen
{8f	(vom
=7	=7
8g	tral-
8g	-la-
8g	-la
8b-/	ʒum
=8	=8
8a	tral-
8a	-la-
8a}	-la)
{16ccL	drei
16ffJ	.
=9	=9
8cc	jun-
8a	-ge
8b-	Berg-
16aL	-leut'
16gJ	.
=10	=10
4f	raus.
8r}	.
==	==
!!!AGN: erzaehlendes Volks - Lied, Sage, Liebe, Ballade ?
!!!ONB: ESAC (Essen Associative Code) Database: ERK1
!!!AMT: simple duple
!!!AIN: vox
!!!EED: Helmut Schaffrath
!!!EEV: 1.0
!!!GTL: Liebesgeschichten mit gluecklichem Ausgange
!!!URL-scan: https://rosdok.uni-rostock.de/mcrviewer/recordIdentifier/rosdok_ppn745146120/iview2/phys_0323.iview2?x=-495.6391625615772&y=1486.2637745786924&scale=0.46294184720638515&rotation=0&layout=singlePageLayout&logicalDiv=log_0009
!!!ENC: Anna Maria Matuszewska
!!!EEV: 2024/11/26
*-	*-
